X:1
T:Title
%%score { ( 1 3 ) | ( 2 4 ) }
L:1/8
Q:1/4=94
M:3/4
K:A
V:1 treble nm="Grand Piano"
V:3 treble 
V:2 bass 
V:4 bass 
V:1
 E>^D FE AF | z2 G4 | E^D GE B>=c | c4 z2 | F>A GB AF | z2 c4 | cF FG Ac |[M:4/4] B8 | %8
w: C.~E.~Koch * * * * *||||||||
 [CE]>[=C^D] [^CF][CE] [Fd]2 [Ec]2 | B4 F2 z2 | F>E GE B2 =c2 | [Ec]6 z2 | %12
w: ||||
 [CE]>[CF] [CG][CA] [Fd]2 [Ec]2 | [FB] [Fd]3- [Fd]2 z2 | ccGA B2 c2 | [CA]6 z2 |] %16
w: ||||
V:2
 A,,2 [E,A,C]2 [E,A,C]2 | B,,2 [E,B,D]2 [E,B,]2 | [E,,E,]2 [E,G,D]2 [E,G,D]2 | %3
 A,,2 [E,A,]2 [E,A,]2 | D,2 [F,A,D]2 [F,A,D]2 | A,,2 [E,A,C]2 [E,A,]2 | %6
 B,,2 [F,A,B,^D]2 [F,A,B,D]2 |[M:4/4] E,2 E,,6 | [A,,A,]>[A,,A,] [A,,A,][A,,A,] [A,,A,]2 [A,,A,]2 | %9
 [D,D]4- [D,B,D]2 z2 | [E,G,D]>[E,G,D] [E,B,D][E,G,D] [E,G,D]2 [E,G,^D]2 | [A,,A,]6 z2 | %12
 [A,,A,]>[A,,A,] [A,,A,][A,,A,] [A,,A,]2 [A,,A,]2 | [D,A,] [D,A,]3- [D,A,]2 z2 | %14
 [E,A,E][E,A,E][E,B,D][E,A,C] [E,A,D]2 [E,A,E]2 | [A,,A,]6 z2 |] %16
V:3
 x6 | A2 z2 D2 | x6 | z2 C2 C2 | x6 | E2 z2 C2 | x6 |[M:4/4] x8 | x8 | x8 | x8 | x8 | x8 | x8 | %14
 x8 | x8 |] %16
V:4
 x6 | x6 | x6 | x6 | x6 | x6 | x6 |[M:4/4] x8 | x8 | F,4 z4 | x8 | x8 | x8 | x8 | x8 | x8 |] %16

